X:25
T: Stoney Lonesome
C: Bill Monroe
S: MandoZine TablEdit Archives
Z: TablEdited by Mike Stangeland for MandoZine
L: 1/8
Q: 412
M: 4/4
K: A
 z7e | "A"[a3e3][ae] z[ae] [ae][ee] | [=ge][ee] [=ge][ee] [ae][=ge] [e2e2] | [a3e3][ae] z[ae] [ae]e |
 [e2e2] dA ec Ae | [a3e3][ae] z[ae] [ae][ee] | [=ge][ee] [=ge][ee] [ae][=ge] [ee]f |
 "G"[=g2d2] f2 "D"e2 d2 | "E"cd d"A"e ec A2 | "A"[a3e3][ae] z[ae] [ae][ee] | [=ge][ee] [=ge][ee] [ae][=ge] [e2e2] |
 [a3e3][ae] z[ae] [ae]e | [e2e2] dA ec Ae | [a3e3][ae] z[ae] [ae][ee] | [=ge][ee] [=ge][ee] [ae][=ge] [ee]f |
 "G"[=g2d2] f2 "D"e2 d2 | "E"cd d"A"e ec A2 |
